svg/u1f6bd.svg

<svg viewBox="0 0 128 128" xmlns="http://www.w3.org/2000/svg">
  <g>
    <path d="M82.3,64.16c0,0,2.21,3.59,6.71,3.59s8.65-0.14,8.65-0.14s3.86-0.92,5.41-3.45H82.3z" fill="#2F7889"/>
    <path d="M99.86,65.38h-14.5c-2.63,0-4.8-2.08-4.9-4.72L78.47,8.05c-0.07-1.95,1.48-3.56,3.43-3.56h21.78 c1.96,0,3.52,1.63,3.43,3.59l-2.36,52.62C104.64,63.32,102.49,65.38,99.86,65.38z" fill="#EEEEEE"/>
    <path d="M84.83,4.49h-2.16c-1.95,0-3.51,1.62-3.43,3.56l1.99,52.61c0,3.5,3.76,4.72,3.76,4.72 c1.82,0.01,2.26-3.2,2.31-4.74l1.64-51.91C89.01,6.41,87.15,4.49,84.83,4.49z" fill="#FFFFFF"/>
    <path d="M102.12,72.19c-0.48-3.02-0.93-4.58-2.58-4.58H26.55h-3.03c-1.59,0-2.81,1.58-2.52,3.3 c1.74,10.38,8.2,18.98,16.9,23.14c2.38,10.45-5.15,17.54-6.35,26.64c-0.19,1.44,0.9,2.28,2.3,2.28h55.88c1.34,0,2.4-0.75,2.31-2.15 c0,0-4.36-17.46-4.85-21.17c-0.49-3.71-0.09-8.91,12.09-19.65C101.17,78.34,102.6,75.21,102.12,72.19z" fill="#EEEEEE"/>
    <line fill="none" stroke="#69A1BA" stroke-width="1.9835" stroke-miterlimit="10" x1="78.65" x2="106.9" y1="12.83" y2="12.83"/>
    <path d="M83.44,60.55c0,0-1.92-50.54-1.99-52.61s1-3.03,1.46-3.45h-1c-1.95,0-3.51,1.62-3.43,3.56 l1.99,52.61c0.36,3.33,2.38,5.08,6.42,4.72C83.97,64.01,83.47,61.48,83.44,60.55z" fill="#B7D5E5"/>
    <path d="M102.88,3.47C99.15,3.14,81.9,4.49,81.9,4.49s-0.16,0.47,2.87,0.66s12.62,0.14,14.97,0.14 c2.35,0,4.71,0.83,4.47,3.74l-2.47,53.25c-0.07,1.41-2.44,3.01-3.37,3.11l1.87,0.01c2.53-0.2,4.4-2.23,4.51-4.69l2.36-52.62 C107.2,6.12,106.52,3.8,102.88,3.47z" fill="#69A1BA"/>
    <path d="M31.72,70.11c0,0,23.86,0,32.11,0s11.91-2.31,11.91-2.31H22.42C20.81,67.8,24.58,70.11,31.72,70.11z " fill="#B7D5E5"/>
    <path d="M72.62,63.07H24.84c-2.39,0-3.43,1.44-3.88,2.73c-0.33,0.95,0.38,1.95,1.35,1.95h52.82 c0.98,0,1.69-1.02,1.34-1.97C76,64.5,74.96,63.07,72.62,63.07z" fill="#2F7889"/>
    <line fill="none" stroke="#EEEEEE" stroke-width="2.0672" stroke-linecap="round" stroke-miterlimit="10" x1="26.55" x2="34.83" y1="65.41" y2="65.41"/>
    <path d="M99.72,67.62H84.03c-2.45,0-4.38,2.01-4.37,4.46c0.03,4.31-0.37,8.49-3.93,12.72 c-3.66,4.35-5.82,6.28-4.23,12.3c0,0,3.41,18.18,3.88,20.26c0.87,3.9-4.25,6.07-4.25,6.07h18.59c1.34,0,2.39-0.9,2.46-2.54 c0,0,0.05-0.93-0.33-2.54c0,0-3.17-14.91-3.64-19.49c-0.6-5.92,4.42-10.6,8.11-14.06c5.83-5.47,6.21-9.25,6.22-11.22 C102.56,68.8,101.36,67.62,99.72,67.62z" fill="#B7D5E5"/>
    <path d="M48.23,94.64c0.04-0.66,1.69-0.5,2.01-0.5c20.66-0.09,26.01-12.32,27.26-16.65 c0.24-0.83,1.07-1.34,1.93-1.18h0c0.96,0.18,1.58,1.13,1.33,2.07c-1.31,4.97-7.08,18.63-30.89,17.11 C49.65,95.48,48.2,95.29,48.23,94.64z" fill="#69A1BA"/>
    <path d="M33.22,114.71c1.14-4.19,5.66-10.97,4.65-19.19c-5.11-2.51-10.63-9.58-13.18-13.89 c0,0-0.49-0.75,0-0.91c0.36-0.12,0.9,0.44,0.9,0.44c5.81,7.46,11.72,10.81,14.56,12.09c1.06,0.48,1.74,1.57,1.63,2.74 c-0.78,7.82-5.72,14.88-7.35,18.24C33.98,115.12,33,115.51,33.22,114.71z" fill="#B7D5E5"/>
    <path d="M31.53,121.06c0,1.44,1.09,2.36,2.32,2.36h55.88c1.27,0,2.45-0.91,2.45-2.4L31.53,121.06z" fill="#69A1BA"/>
    <path d="M99.46,67.62c0,0,0.64,4.75,0.64,5.69c0,1.79,0.45,4.3-4.42,8.87c-0.65,0.61-1.41,1.24-2.2,1.91 c-3.55,2.97-8.86,8.11-7.47,14.33c0.48,2.14,1.73,5.17,2.49,6.75c0.59,1.23,0.73,0,0.73,0s-0.8-4.26-1.01-6.31 c-0.6-5.92,5.8-11.05,9.5-14.51c5.83-5.46,5.36-9.08,5.36-11.05c0-0.8-0.14-2.37-0.28-3.66c-0.12-1.15-1.09-2.02-2.25-2.02 C99.46,67.62,99.46,67.62,99.46,67.62z" fill="#69A1BA"/>
    <path d="M33.05,83.4c-4.92-6.12,2.63-9.21,5.07-5.24c2.86,4.67,3.9,6.7,5.34,8.5 c0.58,0.73,1.25,1.47,1.84,2.1c0.58,0.61,0.06,1.61-0.78,1.5C37.7,89.38,34.7,85.46,33.05,83.4z" fill="#FFFFFF"/>
    <path d="M43.32,117.65H40.4c-1.27,0-2.25-1.15-2.02-2.39c0.6-3.31,2.31-6.16,3.59-8.81 c0.79-1.65,2.11-4.97,2.59-7.53c0.19-1.03,1.14-1.74,2.18-1.65l2.31,0.2c1.22,0.11,2.07,1.26,1.82,2.46 c-0.73,3.57-2.98,7.64-3.65,9.31c-0.89,2.2-1.54,5.03-1.9,6.78C45.12,116.97,44.29,117.65,43.32,117.65z" fill="#FFFFFF"/>
  </g>
</svg>

<svg viewBox="0 0 128 128" xmlns="http://www.w3.org/2000/svg">
  <defs/>
  <path d="M82.3,64.16 C82.3,64.16 84.51,67.75 89.01,67.75 C93.51,67.75 97.66,67.61 97.66,67.61 C97.66,67.61 101.52,66.69 103.07,64.16 L82.3,64.16 Z" fill="#2F7889"/>
  <path d="M99.86,65.38 L85.36,65.38 C82.73,65.38 80.56,63.3 80.46,60.66 L78.47,8.05 C78.4,6.1 79.95,4.49 81.9,4.49 L103.68,4.49 C105.64,4.49 107.2,6.12 107.11,8.08 L104.75,60.7 C104.64,63.32 102.49,65.38 99.86,65.38 Z" fill="#EEEEEE"/>
  <path d="M84.83,4.49 L82.67,4.49 C80.72,4.49 79.16,6.11 79.24,8.05 L81.23,60.66 C81.23,64.16 84.99,65.38 84.99,65.38 C86.81,65.39 87.25,62.18 87.3,60.64 L88.94,8.73 C89.01,6.41 87.15,4.49 84.83,4.49 Z" fill="#FFFFFF"/>
  <path d="M102.12,72.19 C101.64,69.17 101.19,67.61 99.54,67.61 L26.55,67.61 L23.52,67.61 C21.93,67.61 20.71,69.19 21,70.91 C22.74,81.29 29.2,89.89 37.9,94.05 C40.28,104.5 32.75,111.59 31.55,120.69 C31.36,122.13 32.45,122.97 33.85,122.97 L89.73,122.97 C91.07,122.97 92.13,122.22 92.04,120.82 C92.04,120.82 87.68,103.36 87.19,99.65 C86.7,95.94 87.1,90.74 99.28,80 C101.17,78.34 102.6,75.21 102.12,72.19 Z" fill="#EEEEEE"/>
  <path d="M78.65,11.838 L106.9,11.838 L106.9,13.822 L78.65,13.822 L78.65,11.838 Z" fill="#69A1BA"/>
  <path d="M83.44,60.55 C83.44,60.55 81.52,10.01 81.45,7.94 C81.38,5.87 82.45,4.91 82.91,4.49 L81.91,4.49 C79.96,4.49 78.4,6.11 78.48,8.05 L80.47,60.66 C80.83,63.99 82.85,65.74 86.89,65.38 C83.97,64.01 83.47,61.48 83.44,60.55 Z" fill="#B7D5E5"/>
  <path d="M102.88,3.47 C99.15,3.14 81.9,4.49 81.9,4.49 C81.9,4.49 81.74,4.96 84.77,5.15 C87.8,5.34 97.39,5.29 99.74,5.29 C102.09,5.29 104.45,6.12 104.21,9.03 L101.74,62.28 C101.67,63.69 99.3,65.29 98.37,65.39 L100.24,65.4 C102.77,65.2 104.64,63.17 104.75,60.71 L107.11,8.09 C107.2,6.12 106.52,3.8 102.88,3.47 Z" fill="#69A1BA"/>
  <path d="M31.72,70.11 C31.72,70.11 55.58,70.11 63.83,70.11 C72.08,70.11 75.74,67.8 75.74,67.8 L22.42,67.8 C20.81,67.8 24.58,70.11 31.72,70.11 Z" fill="#B7D5E5"/>
  <path d="M72.62,63.07 L24.84,63.07 C22.45,63.07 21.41,64.51 20.96,65.8 C20.63,66.75 21.34,67.75 22.31,67.75 L75.13,67.75 C76.11,67.75 76.82,66.73 76.47,65.78 C76,64.5 74.96,63.07 72.62,63.07 Z" fill="#2F7889"/>
  <path d="M26.55,64.376 L34.83,64.376 Q35.864,64.376 35.864,65.41 Q35.864,66.444 34.83,66.444 L26.55,66.444 Q25.516,66.444 25.516,65.41 Q25.516,64.376 26.55,64.376 Z" fill="#EEEEEE"/>
  <path d="M99.72,67.62 L84.03,67.62 C81.58,67.62 79.65,69.63 79.66,72.08 C79.69,76.39 79.29,80.57 75.73,84.8 C72.07,89.15 69.91,91.08 71.5,97.1 C71.5,97.1 74.91,115.28 75.38,117.36 C76.25,121.26 71.13,123.43 71.13,123.43 L89.72,123.43 C91.06,123.43 92.11,122.53 92.18,120.89 C92.18,120.89 92.23,119.96 91.85,118.35 C91.85,118.35 88.68,103.44 88.21,98.86 C87.61,92.94 92.63,88.26 96.32,84.8 C102.15,79.33 102.53,75.55 102.54,73.58 C102.56,68.8 101.36,67.62 99.72,67.62 Z" fill="#B7D5E5"/>
  <path d="M48.23,94.64 C48.27,93.98 49.92,94.14 50.24,94.14 C70.9,94.05 76.25,81.82 77.5,77.49 C77.74,76.66 78.57,76.15 79.43,76.31 L79.43,76.31 C80.39,76.49 81.01,77.44 80.76,78.38 C79.45,83.35 73.68,97.01 49.87,95.49 C49.65,95.48 48.2,95.29 48.23,94.64 Z" fill="#69A1BA"/>
  <path d="M33.22,114.71 C34.36,110.52 38.88,103.74 37.87,95.52 C32.76,93.01 27.24,85.94 24.69,81.63 C24.69,81.63 24.2,80.88 24.69,80.72 C25.05,80.6 25.59,81.16 25.59,81.16 C31.4,88.62 37.31,91.97 40.15,93.25 C41.21,93.73 41.89,94.82 41.78,95.99 C41,103.81 36.06,110.87 34.43,114.23 C33.98,115.12 33,115.51 33.22,114.71 Z" fill="#B7D5E5"/>
  <path d="M31.53,121.06 C31.53,122.5 32.62,123.42 33.85,123.42 L89.73,123.42 C91,123.42 92.18,122.51 92.18,121.02 L31.53,121.06 Z" fill="#69A1BA"/>
  <path d="M99.46,67.62 C99.46,67.62 100.1,72.37 100.1,73.31 C100.1,75.1 100.55,77.61 95.68,82.18 C95.03,82.79 94.27,83.42 93.48,84.09 C89.93,87.06 84.62,92.2 86.01,98.42 C86.49,100.56 87.74,103.59 88.5,105.17 C89.09,106.4 89.23,105.17 89.23,105.17 C89.23,105.17 88.43,100.91 88.22,98.86 C87.62,92.94 94.02,87.81 97.72,84.35 C103.55,78.89 103.08,75.27 103.08,73.3 C103.08,72.5 102.94,70.93 102.8,69.64 C102.68,68.49 101.71,67.62 100.55,67.62 C99.46,67.62 99.46,67.62 99.46,67.62 Z" fill="#69A1BA"/>
  <path d="M33.05,83.4 C28.13,77.28 35.68,74.19 38.12,78.16 C40.98,82.83 42.02,84.86 43.46,86.66 C44.04,87.39 44.71,88.13 45.3,88.76 C45.88,89.37 45.36,90.37 44.52,90.26 C37.7,89.38 34.7,85.46 33.05,83.4 Z" fill="#FFFFFF"/>
  <path d="M43.32,117.65 L40.4,117.65 C39.13,117.65 38.15,116.5 38.38,115.26 C38.98,111.95 40.69,109.1 41.97,106.45 C42.76,104.8 44.08,101.48 44.56,98.92 C44.75,97.89 45.7,97.18 46.74,97.27 L49.05,97.47 C50.27,97.58 51.12,98.73 50.87,99.93 C50.14,103.5 47.89,107.57 47.22,109.24 C46.33,111.44 45.68,114.27 45.32,116.02 C45.12,116.97 44.29,117.65 43.32,117.65 Z" fill="#FFFFFF"/>
</svg>
